X:1
T: Miss William's Fancy
C:
R:Jig
Q:180
K:F
M:6/8
L:1/16
|:c2A2F2 F2G2F2|f6d6|c2A2F2 F2G2F2|E2G2G2 G4A2|
c2A2F2 F2G2F2|f6d6|c2d2c2 B2A2G2|A2F2F2 F6:|
|:c6c2f2a2|B6B2d2f2|A6A2B2c2|B2G2G2 G4A2|
F6F2A2c2|d2e2f2 f2e2d2|c2d2c2 B2A2G2|A2F2F2 F6:|
